X: 1
T:Old Time Wedding Reel #2
T:Hamish the Carpenter
T:Och a Chiallain
R:Reel
A:Cape Breton
S:Sandy MacIntyre
N:From the playing of Sandy MacIntyre
Z:Transcribed Nov 20 1998 by Wil Macaulay
Z: posted by Wil Macaulay 4/99
M:C
L:1/8
K:Amin
B | A2GE GABd | E2dB degB | A2GE GABd | egdB A/A/A AB |
A2GE GABd | E2dB dega | gedB GABd | egdB A/A/A A ||
B | Aaab a2ge | gaba gegd | eaab a2ge | dBgB A/A/A A B, |
A,aab a2ge | gaba gegd | egab ageg | dBgB A/A/A A ||
